assets/images/mail.svg

<svg width="20" height="16" viewBox="0 0 20 16" fill="none" xmlns="http://www.w3.org/2000/svg">
<path d="M1.5 1.5L8.58579 8.58579C9.36683 9.36683 10.6332 9.36684 11.4142 8.58579L18.5 1.5M2 15H18C18.5523 15 19 14.5523 19 14V2C19 1.44772 18.5523 1 18 1H2C1.44772 1 1 1.44772 1 2V14C1 14.5523 1.44772 15 2 15Z" stroke="#7F75E2" stroke-width="2" stroke-linecap="round" stroke-linejoin="round"/>
</svg>

<svg width="20" height="16" fill="none" xmlns="http://www.w3.org/2000/svg"><path d="m1.5 1.5 7.086 7.086a2 2 0 0 0 2.828 0L18.5 1.5M2 15h16a1 1 0 0 0 1-1V2a1 1 0 0 0-1-1H2a1 1 0 0 0-1 1v12a1 1 0 0 0 1 1Z" stroke="#7F75E2" stroke-width="2" stroke-linecap="round" stroke-linejoin="round"/></svg>
